X:1
T: The Marchioness of Breadalbane
C:William Marshall
R:Reel
Q: 232
K:C
M:4/4
L:1/8
|:G|c2 cB1/2A1/2 Gc GE|FD EC A,C B,G,|c2 cB1/2A1/2 Gc GE|Dd BG c2 cG|
c2 cB1/2A1/2 Gc GE|Fd Ec Dd BG|c2 cB1/2A1/2 Gc GE|Df dB c2 ce1/2f1/2|
ge ge af af|ge dc Bd BG|ge ge af af|Ad BG c2 ce1/2f1/2|
ge ge af af|ge dc Bd BG|AF cA GE cE|Df dB c2 c:|
